X:27
T:Turn the Winch
C:Corwin Zekley
L:1/8
M:6/8
K:Gmin
"Gm" GFG G,2 D | GFG Bcd |"F" F=EF A,2 D | F=EF ABc |$"Gm" BAB"F" cAF |"Bb" dcd"Dm" fga | %6
"Gm" gfd cBA |"Dm" d2 d cBF :|$"Gm" GBG AcA | BdB cdf | g2 g- gfd | g2 g- g2 =e |$ %12
"F" !turn!f3 f=ed | cAF FGA |"Gm" G2 G, G2 G, |"Dm" FGd cBA |$ GBG AcA | BdB cdf | g2 g- gfd | %19
 g2 g- g2 f |$"F" baf cBA | F3 FGA |"Gm" G2 G, G2 G, |"Dm" FGd cBA |] %24

